X:1
T:Audite Coeli
T:Audite Coeli
T:Giovanni Girolamo Kapsperger
T:Source : Libro primo di mottetti passeggiati a una voce---Roma---1612. Racolta del Sig.Francesco de Nobile Editor : André Vierendeels (21/10/15).
T:Notes : Original clefs : C1, F4 Editorial accidentals above the staff Figures in BC are notated in original Ms Note values have been halved in 3-beat measures
C:Giovanni Girolamo Kapsperger
%%score 1 { 2 | 3 }
L:1/8
Q:1/4=120
M:4/4
K:F
V:1 treble nm="Soprano" snm="S"
V:2 treble nm="BC" snm="BC"
V:3 bass 
V:1
 G2 G4 G2 | G3 A/B/ D2 E2 | ^F4 F4 | A4 A2 =B2 | c3 A c2 G2 | c>d c>B A>B G>A | %6
w: Au- di- te|Coe- * * li quae|lo- quor|au- di- at|ter- ra ver- ba|o- * * * * * * *|
 F>G E>F G>C D/E/F/C/ | D/E/F/G/ A/B/c/F/ G4 | F6 x2 | c6 BA | d3 B B2 z B/c/ | %11
w: |* * * * * * * ris me-|i,|cres- cat ut|plu- vi- a do- *|
 d/c/B/A/ G/F/E/D/ E4 | D8 | d6 dd | d6 DE | F/E/F/E/ F/E/F/G/ E2 F/G/A/B/ | cc/c/ c/d/e/A/ =B4 | %17
w: tri- * * * na _ _ _ me-|a|flu- at ut|ros e- *|* * * * * * * * * lo- * * *|* qui- um me- * * * *|
 A8 | c2 B2 A2 c2 | B2 A/G/A/B/ G4 | F4 d2 _e/d/ c/B/ | c/B/ A/G/ c/B/ A/G/ A3 A | G4 G2 A2 | %23
w: um|qua- si im- ber|su- per _ _ _ her-|bam et qua- * si _|stil- * lae _ su- * per _ gra- mi-|na, qui- a|
 =B2 c2 c4- | c2 =B2 c3 _e |"^b""^b" d/e/f/c/ d/e/F G/A/B/c/ d/e/f/g/ | B6 A2 | B4 d4 | %28
w: no- men Do-|* mi- ni in-|vo- * * * * * * * * * * * * * *|ca- bo|_ qui-|
 c/B/c/d/ B4 A/G/A/B/ | G/A/B<_EF/G/ F/G/F/G/ F/F/4F/4E | F2 d _e/d/ c/B/A/G/ ^F/G/A/B/ | %31
w: a _ _ _ no- men _ _ _|Do- * * * * * * * * * * * * mi-|ni in- vo- * * * * * ca- * * *|
 c/d/G/A/ B/A/c/B/ A4 | G8 |[M:3/4] B2 c2 d2 | _e4 c2 | d3 c c2 | %36
w: |bo,|da- te ma-|gni- fi-|cen- ti- am|
[M:4/4] z B/c/ d/c/B/A/ G/A/B/G/ A/B/c/B/ | A/G/F/E/ D/E/F/G/ A/B/ G2 A/B/ | %38
w: De- * * * * * o _ _ _ no- * * *||
 A2 B/c/ F2 G/A/ G/A/G/A/ | G/A/G/A/ G/G/4G/4F G4 | F4 c4- | c B2 A A3 B/c/4d/4 | F3 E E3 D | %43
w: ||stro, De-|* i per- fe- * * *|cta sunt o- pe-|
 D4 d4- | d2 c/B/A/G/ F/E/ D2 E | ^F2 G2 A4 | A4 B3 c/d/ | ^F2 G4 F2 | !fermata!G8 |] %49
w: ra et|_ o- * * * * * * mnes|vi- ae e-|ius iu- * *|di- * ci-|a.|
V:2
 z8 | z8 | z8 | z8 | z8 | z8 | z8 | z8 | z8 | z8 | z8 | z8 | z8 | z8 | z8 | z8 | z8 | z8 | z8 | %19
 z8 | z8 | z8 | z8 | z8 | z8 | z8 |"^b" z8 | z8 | z8 | z8 | z8 | z8 | z8 |[M:3/4] z6 | z6 | z6 | %36
[M:4/4] z8 | z8 | z8 | z8 | z8 | z8 | z8 | z8 | z8 | z8 | z8 | z8 | z8 |] %49
V:3
 G,,8- | G,,8 | D,8 |"^-natural" D,8 | C,8 |"^6" A,,8 |"^6" A,,8- | A,,4 C,4 |"^4   3" F,,8- | %9
 F,,8 | G,,8- | G,,4 A,,4 |"^#" D,8 | D,8- | D,8 | D,4 E,4 |"^4  3" E,4 E,4 |"^#" A,,8 | %18
 F,,2 G,,2 A,,2 F,,2 | G,,2 A,,2 C,4 | F,,4 B,,2 C,2 | C,4 D,4 | G,,4 G,2 ^F,2 | G,2 E,2 D,4- | %24
 D,4 C,4 | B,,8 | D,2 _E,2 F,4 | B,,8 | F,2 G,2 D,4 | _E,8 | B,,3 C, C,2 D,2 | D,8 | G,,8 | %33
[M:3/4]"^-natural" G,2 F,2 D,2 | C,4 A,,2 | B,,3 F,, F,,2 |[M:4/4] G,,4 B,,2 A,,2- | %37
 A,,2 B,,2 B,,4 | C,8- | C,8 | F,,8 | G,,4 D,4 | D,2 G,,2 A,,4 | D,8- | D,8 | D,8- | D,4 B,,4 | %47
 D,8 | !fermata!G,,8 |] %49

